; generated by Slic3r 1.3.0 on 2020-12-12 at 01:35:19

; external perimeters extrusion width = 0.44mm (3.38mm^3/s)
; perimeters extrusion width = 0.48mm (7.54mm^3/s)
; infill extrusion width = 0.48mm (10.05mm^3/s)
; solid infill extrusion width = 0.48mm (2.51mm^3/s)
; top infill extrusion width = 0.48mm (1.88mm^3/s)

M107
M190 S60 ; set bed temperature and wait for it to be reached
M104 S200 ; set temperature
G28 ; home all axes
G1 Z5 F5000 ; lift nozzle

; Filament gcode

M109 S200 ; set temperature and wait for it to be reached
G21 ; set units to millimeters
G90 ; use absolute coordinates
M82 ; use absolute distances for extrusion
G92 E0
G1 Z0.300 F7800.000
G1 E-3.00000 F2400.00000
G92 E0
G1 X46.241 Y63.011 F7800.000
G1 E3.00000 F2400.00000
G1 F1800
G1 X48.431 Y62.105 E3.15833
G1 X50.000 Y61.929 E3.26383
G1 X150.000 Y61.929 E9.94437
G1 X152.337 Y62.326 E10.10270
G1 X154.411 Y63.473 E10.26103
G1 X155.989 Y65.241 E10.41936
G1 X156.895 Y67.431 E10.57769
G1 X157.071 Y69.000 E10.68318
G1 X157.071 Y131.000 E14.82512
G1 X156.674 Y133.337 E14.98345
G1 X155.527 Y135.411 E15.14178
G1 X153.759 Y136.989 E15.30011
G1 X151.569 Y137.895 E15.45844
G1 X150.000 Y138.071 E15.56394
G1 X50.000 Y138.071 E22.24448
G1 X47.663 Y137.674 E22.40281
G1 X45.589 Y136.527 E22.56114
G1 X44.011 Y134.759 E22.71947
G1 X43.105 Y132.569 E22.87780
G1 X42.929 Y131.000 E22.98329
G1 X42.929 Y69.000 E27.12523
G1 X43.326 Y66.663 E27.28356
G1 X44.473 Y64.589 E27.44189
G1 X46.196 Y63.051 E27.59621
G1 X46.753 Y63.328 F7800.000
G1 F1800
G1 X50.000 Y62.464 E27.82064
G1 X150.000 Y62.464 E34.50118
G1 X152.243 Y62.861 E34.65335
G1 X154.213 Y64.004 E34.80552
G1 X155.672 Y65.753 E34.95769
G1 X156.536 Y69.000 E35.18212
G1 X156.536 Y131.000 E39.32406
G1 X156.139 Y133.243 E39.47623
G1 X154.996 Y135.213 E39.62840
G1 X153.247 Y136.672 E39.78057
G1 X150.000 Y137.536 E40.00500
G1 X50.000 Y137.536 E46.68554
G1 X47.757 Y137.139 E46.83771
G1 X45.787 Y135.996 E46.98989
G1 X44.328 Y134.247 E47.14206
G1 X43.464 Y131.000 E47.36649
G1 X43.464 Y69.000 E51.50842
G1 X43.861 Y66.757 E51.66059
G1 X45.004 Y64.787 E51.81276
G1 X46.707 Y63.366 E51.96093
G1 F6240
G1 X50.000 Y62.464 E50.71352
G1 F6240
G1 X54.386 Y62.464 E49.11093
G1 E48.96093 F2400.00000
G92 E0
G1 X54.603 Y127.500 F7800.000
G1 E3.00000 F2400.00000
G1 F1800
G1 X54.548 Y127.915 E3.02795
G1 X54.388 Y128.301 E3.05590
G1 X54.133 Y128.633 E3.08385
G1 X53.801 Y128.888 E3.11179
G1 X53.415 Y129.048 E3.13974
G1 X53.000 Y129.103 E3.16769
G1 X52.585 Y129.048 E3.19564
G1 X52.199 Y128.888 E3.22359
G1 X51.867 Y128.633 E3.25154
G1 X51.612 Y128.301 E3.27949
G1 X51.452 Y127.915 E3.30744
G1 X51.397 Y127.500 E3.33538
G1 X51.452 Y127.085 E3.36333
G1 X51.612 Y126.699 E3.39128
G1 X51.867 Y126.367 E3.41923
G1 X52.199 Y126.112 E3.44718
G1 X52.585 Y125.952 E3.47513
G1 X53.000 Y125.897 E3.50308
G1 X53.415 Y125.952 E3.53102
G1 X53.801 Y126.112 E3.55897
G1 X54.133 Y126.367 E3.58692
G1 X54.388 Y126.699 E3.61487
G1 X54.548 Y127.085 E3.64282
G1 X54.595 Y127.441 E3.66676
G1 X54.603 Y127.500 F7800.000
G1 F6240
G1 X54.603 Y127.500 E3.64484
G1 F6240
G1 X54.548 Y127.915 E3.49197
G1 F6240
G1 X54.388 Y128.301 E3.33911
G1 F6240
G1 X54.133 Y128.633 E3.18625
G1 F6240
G1 X53.801 Y128.888 E3.03339
G1 F6240
G1 X53.415 Y129.048 E2.88052
G1 F6240
G1 X53.000 Y129.103 E2.72766
G1 F6240
G1 X52.585 Y129.048 E2.57480
G1 F6240
G1 X52.199 Y128.888 E2.42194
G1 F6240
G1 X51.867 Y128.633 E2.26907
G1 F6240
G1 X51.612 Y128.301 E2.11621
G1 F6240
G1 X51.452 Y127.915 E1.96335
G1 F6240
G1 X51.397 Y127.500 E1.81049
G1 F6240
G1 X51.452 Y127.085 E1.65763
G1 F6240
G1 X51.612 Y126.699 E1.50477
G1 F6240
G1 X51.867 Y126.367 E1.35190
G1 F6240
G1 X52.199 Y126.112 E1.19904
G1 F6240
G1 X52.585 Y125.952 E1.04618
G1 F6240
G1 X53.000 Y125.897 E0.89332
G1 F6240
G1 X53.208 Y125.925 E0.81676
G1 E0.66676 F2400.00000
G92 E0
G1 X53.000 Y74.103 F7800.000
G1 E3.00000 F2400.00000
G1 F1800
G1 X52.585 Y74.048 E3.02795
G1 X52.199 Y73.888 E3.05590
G1 X51.867 Y73.633 E3.08385
G1 X51.612 Y73.301 E3.11179
G1 X51.452 Y72.915 E3.13974
G1 X51.397 Y72.500 E3.16769
G1 X51.452 Y72.085 E3.19564
G1 X51.612 Y71.699 E3.22359
G1 X51.867 Y71.367 E3.25154
G1 X52.199 Y71.112 E3.27949
G1 X52.585 Y70.952 E3.30744
G1 X53.000 Y70.897 E3.33538
G1 X53.415 Y70.952 E3.36333
G1 X53.801 Y71.112 E3.39128
G1 X54.133 Y71.367 E3.41923
G1 X54.388 Y71.699 E3.44718
G1 X54.548 Y72.085 E3.47513
G1 X54.603 Y72.500 E3.50308
G1 X54.548 Y72.915 E3.53102
G1 X54.388 Y73.301 E3.55897
G1 X54.133 Y73.633 E3.58692
G1 X53.801 Y73.888 E3.61487
G1 X53.415 Y74.048 E3.64282
G1 X53.059 Y74.095 E3.66676
G1 X53.000 Y74.103 F7800.000
G1 F6240
G1 X53.000 Y74.103 E3.64484
G1 F6240
G1 X52.585 Y74.048 E3.49198
G1 F6240
G1 X52.199 Y73.888 E3.33911
G1 F6240
G1 X51.867 Y73.633 E3.18625
G1 F6240
G1 X51.612 Y73.301 E3.03339
G1 F6240
G1 X51.452 Y72.915 E2.88053
G1 F6240
G1 X51.397 Y72.500 E2.72766
G1 F6240
G1 X51.452 Y72.085 E2.57480
G1 F6240
G1 X51.612 Y71.699 E2.42194
G1 F6240
G1 X51.867 Y71.367 E2.26908
G1 F6240
G1 X52.199 Y71.112 E2.11622
G1 F6240
G1 X52.585 Y70.952 E1.96335
G1 F6240
G1 X53.000 Y70.897 E1.81049
G1 F6240
G1 X53.415 Y70.952 E1.65763
G1 F6240
G1 X53.801 Y71.112 E1.50477
G1 F6240
G1 X54.133 Y71.367 E1.35190
G1 F6240
G1 X54.388 Y71.699 E1.19904
G1 F6240
G1 X54.548 Y72.085 E1.04618
G1 F6240
G1 X54.603 Y72.500 E0.89332
G1 F6240
G1 X54.575 Y72.708 E0.81676
G1 E0.66676 F2400.00000
G92 E0
G1 X52.442 Y76.190 F7800.000
G1 E3.00000 F2400.00000
G1 F1800
G1 X53.000 Y76.264 E3.03757
G1 X53.974 Y76.135 E3.10320
G1 X54.882 Y75.759 E3.16884
G1 X55.661 Y75.161 E3.23447
G1 X56.259 Y74.382 E3.30011
G1 X56.635 Y73.474 E3.36574
G1 X56.764 Y72.500 E3.43138
G1 X56.624 Y71.442 E3.50264
G1 X147.558 Y71.442 E9.57747
G1 X147.558 Y128.558 E13.39306
G1 X56.624 Y128.558 E19.46789
G1 X56.764 Y127.500 E19.53915
G1 X56.635 Y126.526 E19.60478
G1 X56.259 Y125.618 E19.67042
G1 X55.661 Y124.839 E19.73605
G1 X54.882 Y124.241 E19.80169
G1 X53.974 Y123.865 E19.86733
G1 X53.000 Y123.736 E19.93296
G1 X52.442 Y123.810 E19.97053
G1 X52.442 Y76.250 E23.14777
G1 X51.907 Y75.506 F7800.000
G1 F1800
G1 X52.166 Y75.613 E23.16649
G1 X53.000 Y75.723 E23.22270
G1 X53.834 Y75.613 E23.27892
G1 X54.612 Y75.291 E23.33513
G1 X55.279 Y74.779 E23.39135
G1 X55.791 Y74.112 E23.44756
G1 X56.113 Y73.334 E23.50377
G1 X56.223 Y72.500 E23.55999
G1 X56.113 Y71.666 E23.61620
G1 X55.799 Y70.907 E23.67107
G1 X148.093 Y70.907 E29.83681
G1 X148.093 Y129.093 E33.72397
G1 X55.799 Y129.093 E39.88971
G1 X56.113 Y128.334 E39.94459
G1 X56.223 Y127.500 E40.00080
G1 X56.113 Y126.666 E40.05701
G1 X55.791 Y125.888 E40.11323
G1 X55.279 Y125.221 E40.16944
G1 X54.612 Y124.709 E40.22566
G1 X53.834 Y124.387 E40.28187
G1 X53.000 Y124.277 E40.33808
G1 X52.166 Y124.387 E40.39429
G1 X51.907 Y124.494 E40.41302
G1 X51.907 Y75.566 E43.68164
G1 X51.371 Y74.603 F7800.000
G1 F1800
G1 X51.658 Y74.824 E43.70582
G1 X52.306 Y75.092 E43.75262
G1 X53.000 Y75.183 E43.79941
G1 X53.694 Y75.092 E43.84620
G1 X54.342 Y74.824 E43.89299
G1 X54.897 Y74.397 E43.93978
G1 X55.324 Y73.842 E43.98658
G1 X55.592 Y73.194 E44.03337
G1 X55.683 Y72.500 E44.08016
G1 X55.592 Y71.806 E44.12695
G1 X55.324 Y71.158 E44.17374
G1 X54.720 Y70.371 E44.24003
G1 X148.629 Y70.371 E50.51368
G1 X148.629 Y129.629 E54.47240
G1 X54.720 Y129.629 E60.74604
G1 X55.324 Y128.842 E60.81233
G1 X55.592 Y128.194 E60.85912
G1 X55.683 Y127.500 E60.90592
G1 X55.592 Y126.806 E60.95271
G1 X55.324 Y126.158 E60.99950
G1 X54.897 Y125.603 E61.04629
G1 X54.342 Y125.176 E61.09308
G1 X53.694 Y124.908 E61.13988
G1 X53.000 Y124.817 E61.18667
G1 X52.306 Y124.908 E61.23346
G1 X51.658 Y125.176 E61.28025
G1 X51.371 Y125.397 E61.30444
G1 X51.371 Y74.663 E64.69372
G1 X50.836 Y73.502 F7800.000
G1 F1800
G1 X51.094 Y73.451 E64.71133
G1 X51.144 Y73.571 E64.72006
G1 X51.485 Y74.015 E64.75743
G1 X51.929 Y74.356 E64.79480
G1 X52.445 Y74.570 E64.83217
G1 X53.000 Y74.643 E64.86954
G1 X53.555 Y74.570 E64.90691
G1 X54.071 Y74.356 E64.94428
G1 X54.515 Y74.015 E64.98165
G1 X54.856 Y73.571 E65.01902
G1 X55.070 Y73.055 E65.05639
G1 X55.143 Y72.500 E65.09376
G1 X55.070 Y71.945 E65.13113
G1 X54.856 Y71.429 E65.16850
G1 X54.515 Y70.985 E65.20587
G1 X54.071 Y70.644 E65.24324
G1 X53.555 Y70.430 E65.28061
G1 X53.000 Y70.357 E65.31798
G1 X52.445 Y70.430 E65.35535
G1 X51.929 Y70.644 E65.39272
G1 X51.485 Y70.985 E65.43009
G1 X51.144 Y71.429 E65.46746
G1 X51.094 Y71.549 E65.47619
G1 X50.836 Y71.498 E65.49380
G1 X50.836 Y69.836 E65.60484
G1 X149.164 Y69.836 E72.17374
G1 X149.164 Y130.164 E76.20403
G1 X50.836 Y130.164 E82.77292
G1 X50.836 Y128.502 E82.88396
G1 X51.094 Y128.451 E82.90158
G1 X51.144 Y128.571 E82.91030
G1 X51.485 Y129.015 E82.94767
G1 X51.929 Y129.356 E82.98504
G1 X52.445 Y129.570 E83.02241
G1 X53.000 Y129.643 E83.05978
G1 X53.555 Y129.570 E83.09715
G1 X54.071 Y129.356 E83.13452
G1 X54.515 Y129.015 E83.17189
G1 X54.856 Y128.571 E83.20926
G1 X55.070 Y128.055 E83.24663
G1 X55.143 Y127.500 E83.28400
G1 X55.070 Y126.945 E83.32137
G1 X54.856 Y126.429 E83.35874
G1 X54.515 Y125.985 E83.39611
G1 X54.071 Y125.644 E83.43348
G1 X53.555 Y125.430 E83.47086
G1 X53.000 Y125.357 E83.50823
G1 X52.445 Y125.430 E83.54560
G1 X51.929 Y125.644 E83.58297
G1 X51.485 Y125.985 E83.62034
G1 X51.144 Y126.429 E83.65771
G1 X51.094 Y126.549 E83.66643
G1 X50.836 Y126.498 E83.68405
G1 X50.836 Y73.562 E87.22043
G1 F6240
G1 X51.094 Y73.451 E87.11751
G1 F6240
G1 X51.144 Y73.571 E87.06981
G1 F6240
G1 X51.485 Y74.015 E86.86541
G1 F6240
G1 X51.929 Y74.356 E86.66102
G1 F6240
G1 X52.445 Y74.570 E86.45663
G1 F6240
G1 X53.000 Y74.643 E86.25224
G1 F6240
G1 X53.555 Y74.570 E86.04784
G1 F6240
G1 X54.071 Y74.356 E85.84345
G1 F6240
G1 X54.515 Y74.015 E85.63906
G1 F6240
G1 X54.856 Y73.571 E85.43466
G1 F6240
G1 X55.070 Y73.055 E85.23027
G1 F6240
G1 X55.143 Y72.500 E85.02588
G1 F6240
G1 X55.070 Y71.945 E84.82149
G1 F6240
G1 X54.856 Y71.429 E84.61709
G1 F6240
G1 X54.515 Y70.985 E84.41270
G1 F6240
G1 X54.423 Y70.914 E84.37043
G1 E84.22043 F2400.00000
G92 E0
G1 X50.300 Y69.300 F7800.000
G1 E3.00000 F2400.00000
G1 F1800
G1 X149.700 Y69.300 E9.64046
G1 X149.700 Y130.700 E13.74231
G1 X50.300 Y130.700 E20.38277
G1 X50.300 Y69.360 E24.48061
G1 X50.693 Y69.373 F7800.000
G1 X51.103 Y70.432 F7800.000
G1 F1800
G1 X51.864 Y70.237 E24.50555
G1 F1800
G1 X52.126 Y70.185 E24.51075
G1 F1800
G1 X52.389 Y70.132 E24.51265
G1 X51.470 Y70.103 F7800.000
G1 F1800
G1 X51.112 Y70.964 E24.53269
G1 X50.893 Y71.782 F7800.000
G1 F1800
G1 X50.849 Y72.463 E24.57921
G1 X50.893 Y73.218 E24.63071
G1 F6240
G1 X50.849 Y72.463 E24.35460
G1 F6240
G1 X50.893 Y71.782 E24.10523
G1 E21.63071 F2400.00000
G92 E0
G1 X53.611 Y70.132 F7800.000
G1 E3.00000 F2400.00000
G1 F1800
G1 X53.958 Y70.201 E3.00443
G1 F1800
G1 X54.305 Y70.270 E3.01294
G1 X54.257 Y70.345 F7800.000
G1 F1800
G1 X53.982 Y70.103 E3.01798
G1 X54.257 Y70.345 F7800.000
G1 F1800
G1 X54.537 Y70.624 E3.02067
G1 X55.336 Y70.639 F7800.000
G1 F1800
G1 X55.438 Y70.816 E3.02159
G1 F6240
G1 X55.336 Y70.639 E2.94707
G1 E0.02159 F2400.00000
G92 E0
G1 X57.444 Y71.770 F7800.000
G1 E3.00000 F2400.00000
G1 F1800
G1 X57.027 Y72.187 E3.03949
G1 X57.095 Y72.708 E3.07474
G1 X57.070 Y72.903 E3.08790
G1 X58.203 Y71.770 E3.19526
G1 X58.963 Y71.770 E3.24613
G1 X56.955 Y73.778 E3.43636
G1 X56.519 Y74.860 E3.51452
G1 X56.147 Y75.345 E3.55549
G1 X59.722 Y71.770 E3.89422
G1 X60.482 Y71.770 E3.94510
G1 X52.770 Y79.482 E4.67568
G1 X52.770 Y80.241 E4.72656
G1 X61.241 Y71.770 E5.52909
G1 X62.001 Y71.770 E5.57997
G1 X52.770 Y81.001 E6.45445
G1 X52.770 Y81.760 E6.50533
G1 X62.760 Y71.770 E7.45176
G1 X63.520 Y71.770 E7.50264
G1 X52.770 Y82.520 E8.52103
G1 X52.770 Y83.279 E8.57191
G1 X64.279 Y71.770 E9.66225
G1 X65.039 Y71.770 E9.71313
G1 X52.770 Y84.039 E10.87543
G1 X52.770 Y84.798 E10.92630
G1 X65.798 Y71.770 E12.16055
G1 X66.558 Y71.770 E12.21143
G1 X52.770 Y85.558 E13.51763
G1 X52.770 Y86.318 E13.56851
G1 X67.318 Y71.770 E14.94666
G1 X68.077 Y71.770 E14.99754
G1 X52.770 Y87.077 E16.44765
G1 X52.770 Y87.837 E16.49853
G1 X68.837 Y71.770 E18.02059
G1 X69.596 Y71.770 E18.07146
G1 X52.770 Y88.596 E19.66548
G1 X52.770 Y89.356 E19.71635
G1 X70.356 Y71.770 E21.38232
G1 X71.115 Y71.770 E21.43320
G1 X52.770 Y90.115 E23.17112
G1 X52.770 Y90.875 E23.22200
G1 X71.875 Y71.770 E25.03187
G1 X72.634 Y71.770 E25.08275
G1 X52.770 Y91.634 E26.96457
G1 X52.770 Y92.394 E27.01545
G1 X73.394 Y71.770 E28.96923
G1 X74.153 Y71.770 E29.02010
G1 X52.770 Y93.153 E31.04583
G1 X52.770 Y93.913 E31.09671
G1 X74.913 Y71.770 E33.19440
G1 X75.672 Y71.770 E33.24527
G1 X52.770 Y94.672 E35.41491
G1 X52.770 Y95.432 E35.46579
G1 X76.432 Y71.770 E37.70738
G1 X77.191 Y71.770 E37.75826
G1 X52.770 Y96.191 E40.07180
G1 X52.770 Y96.951 E40.12268
G1 X77.951 Y71.770 E42.50817
G1 X78.711 Y71.770 E42.55905
G1 X52.770 Y97.711 E45.01650
G1 X52.770 Y98.470 E45.06738
G1 X79.470 Y71.770 E47.59678
G1 X80.230 Y71.770 E47.64766
G1 X52.770 Y99.230 E50.24901
G1 X52.770 Y99.989 E50.29989
G1 X80.989 Y71.770 E52.97320
G1 X81.749 Y71.770 E53.02407
G1 X52.770 Y100.749 E55.76933
G1 X52.770 Y101.508 E55.82021
G1 X82.508 Y71.770 E58.63743
G1 X83.268 Y71.770 E58.68830
G1 X52.770 Y102.268 E61.57747
G1 X52.770 Y103.027 E61.62835
G1 X84.027 Y71.770 E64.58947
G1 X84.787 Y71.770 E64.64035
G1 X52.770 Y103.787 E67.67342
G1 X52.770 Y104.546 E67.72430
G1 X85.546 Y71.770 E70.82932
G1 X86.306 Y71.770 E70.88020
G1 X52.770 Y105.306 E74.05718
G1 X52.770 Y106.065 E74.10806
G1 X87.065 Y71.770 E77.35699
G1 X87.825 Y71.770 E77.40786
G1 X52.770 Y106.825 E80.72875
G1 X52.770 Y107.584 E80.77963
G1 X88.584 Y71.770 E84.17246
G1 X89.344 Y71.770 E84.22334
G1 X52.770 Y108.344 E87.68813
G1 X52.770 Y109.103 E87.73901
G1 X90.104 Y71.770 E91.27575
G1 X90.863 Y71.770 E91.32663
G1 X52.770 Y109.863 E94.93533
G1 X52.770 Y110.623 E94.98620
G1 X91.623 Y71.770 E98.66685
G1 X92.382 Y71.770 E98.71773
G1 X52.770 Y111.382 E102.47033
G1 X52.770 Y112.142 E102.52121
G1 X93.142 Y71.770 E106.34576
G1 X93.901 Y71.770 E106.39664
G1 X52.770 Y112.901 E110.29315
G1 X52.770 Y113.661 E110.34403
G1 X94.661 Y71.770 E114.31249
G1 X95.420 Y71.770 E114.36337
G1 X52.770 Y114.420 E118.40378
G1 X52.770 Y115.180 E118.45466
G1 X96.180 Y71.770 E122.56702
G1 X96.939 Y71.770 E122.61790
G1 X52.770 Y115.939 E126.80222
G1 X52.770 Y116.699 E126.85310
G1 X97.699 Y71.770 E131.10937
G1 X98.458 Y71.770 E131.16025
G1 X52.770 Y117.458 E135.48848
G1 X52.770 Y118.218 E135.53935
G1 X99.218 Y71.770 E139.93953
G1 X99.977 Y71.770 E139.99041
G1 X52.770 Y118.977 E144.46254
G1 X52.770 Y119.737 E144.51342
G1 X100.737 Y71.770 E149.05750
G1 X101.497 Y71.770 E149.10838
G1 X52.770 Y120.496 E153.72442
G1 X52.770 Y121.256 E153.77530
G1 X102.256 Y71.770 E158.46329
G1 X103.016 Y71.770 E158.51417
G1 X52.770 Y122.016 E163.27411
G1 X52.770 Y122.775 E163.32499
G1 X103.775 Y71.770 E168.15688
G1 X104.535 Y71.770 E168.20776
G1 X52.887 Y123.417 E173.10048
G1 X53.558 Y123.505 E173.14583
G1 X105.294 Y71.770 E178.04692
G1 X106.054 Y71.770 E178.09779
G1 X54.165 Y123.659 E183.01339
G1 X54.702 Y123.881 E183.05233
G1 X106.813 Y71.770 E187.98899
G1 X107.573 Y71.770 E188.03987
G1 X55.180 Y124.163 E193.00320
G1 X55.610 Y124.492 E193.03949
G1 X108.332 Y71.770 E198.03406
G1 X109.092 Y71.770 E198.08494
G1 X55.992 Y124.870 E203.11526
G1 X56.322 Y125.299 E203.15155
G1 X109.851 Y71.770 E208.22259
G1 X110.611 Y71.770 E208.27347
G1 X56.608 Y125.772 E213.38930
G1 X56.831 Y126.309 E213.42824
G1 X111.370 Y71.770 E218.59496
G1 X112.130 Y71.770 E218.64583
G1 X56.990 Y126.909 E223.86939
G1 X57.079 Y127.581 E223.91474
G1 X112.890 Y71.770 E229.20188
G1 X113.649 Y71.770 E229.25275
G1 X57.189 Y128.230 E234.60143
G1 X57.948 Y128.230 E234.65231
G1 X114.409 Y71.770 E240.00099
G1 X115.168 Y71.770 E240.05187
G1 X58.708 Y128.230 E245.40055
G1 X59.467 Y128.230 E245.45143
G1 X115.928 Y71.770 E250.80010
G1 X116.687 Y71.770 E250.85098
G1 X60.227 Y128.230 E256.19966
G1 X60.986 Y128.230 E256.25054
G1 X117.447 Y71.770 E261.59922
G1 X118.206 Y71.770 E261.65010
G1 X61.746 Y128.230 E266.99878
G1 X62.505 Y128.230 E267.04965
G1 X118.966 Y71.770 E272.39833
G1 X119.725 Y71.770 E272.44921
G1 X63.265 Y128.230 E277.79789
G1 X64.024 Y128.230 E277.84877
G1 X120.485 Y71.770 E283.19745
